src/assets/illustrations/not-found.svg

<svg width="360" height="303" viewBox="0 0 360 303" fill="none" xmlns="http://www.w3.org/2000/svg">
<path d="M288.958 87.6022H88.4817C82.657 87.6022 77.9351 92.5748 77.9351 98.7088V223.138C77.9351 229.272 82.657 234.245 88.4817 234.245H288.958C294.782 234.245 299.504 229.272 299.504 223.138V98.7088C299.504 92.5748 294.782 87.6022 288.958 87.6022Z" fill="white" stroke="#E5E7EB" stroke-width="4"/>
<path d="M267.841 98.3828H252.486C250.075 98.3828 248.121 100.441 248.121 102.98C248.121 105.518 250.075 107.576 252.486 107.576H267.841C270.251 107.576 272.206 105.518 272.206 102.98C272.206 100.441 270.251 98.3828 267.841 98.3828Z" fill="white" stroke="#E5E7EB" stroke-width="4"/>
<path d="M235.424 98.3828H220.069C217.658 98.3828 215.704 100.441 215.704 102.98C215.704 105.518 217.658 107.576 220.069 107.576H235.424C237.835 107.576 239.789 105.518 239.789 102.98C239.789 100.441 237.835 98.3828 235.424 98.3828Z" fill="white" stroke="#E5E7EB" stroke-width="4"/>
<path d="M207.373 102.98C207.373 100.441 205.419 98.3828 203.008 98.3828C200.597 98.3828 198.643 100.441 198.643 102.98C198.643 105.518 200.597 107.576 203.008 107.576C205.419 107.576 207.373 105.518 207.373 102.98Z" fill="white" stroke="#E5E7EB" stroke-width="4"/>
<path d="M105.628 183.755H135.407V195.24H147.948V183.755H155.643V172.685H147.948V129.904H131.529L105.628 172.876V183.755ZM135.649 172.685H118.836V172.174L135.164 144.962H135.649V172.685ZM188.708 196.675C204.309 196.675 213.73 184.169 213.761 162.636C213.791 141.262 204.248 129.011 188.708 129.011C173.137 129.011 163.686 141.23 163.655 162.636C163.595 184.106 173.077 196.643 188.708 196.675ZM188.708 185.222C181.589 185.222 176.985 177.693 177.015 162.636C177.045 147.801 181.619 140.336 188.708 140.336C195.766 140.336 200.371 147.801 200.371 162.636C200.401 177.693 195.797 185.222 188.708 185.222ZM222.175 183.755H251.953V195.24H264.495V183.755H272.189V172.685H264.495V129.904H248.076L222.175 172.876V183.755ZM252.195 172.685H235.383V172.174L251.711 144.962H252.195V172.685Z" fill="#E5E7EB"/>
<path d="M99.0343 102.081C99.0343 100.039 97.462 98.3828 95.5223 98.3828C93.5827 98.3828 92.0103 100.039 92.0103 102.081C92.0103 104.124 93.5827 105.78 95.5223 105.78C97.462 105.78 99.0343 104.124 99.0343 102.081Z" fill="white" stroke="#E5E7EB" stroke-width="4"/>
<path d="M80.8228 186.292C83.2844 186.292 85.2799 188.394 85.2799 190.986C85.2799 193.578 83.2844 195.68 80.8228 195.68C78.3612 195.68 76.3657 193.578 76.3657 190.986C76.3657 188.394 78.3612 186.292 80.8228 186.292Z" fill="#0E9F6E"/>
<path d="M302.946 135.616C299.96 137.431 296.144 136.354 294.42 133.211C292.697 130.067 293.719 126.048 296.705 124.233C299.69 122.418 303.506 123.495 305.23 126.638C306.953 129.782 305.931 133.801 302.946 135.616Z" fill="#0E9F6E"/>
<path d="M186.333 107.835C183.764 107.835 181.681 105.642 181.681 102.937C181.681 100.232 183.764 98.0385 186.333 98.0385C188.902 98.0385 190.984 100.232 190.984 102.937C190.984 105.642 188.902 107.835 186.333 107.835Z" fill="#E5E7EB"/>
<path d="M130.717 91.313C134.136 91.313 136.907 88.3942 136.907 84.7937C136.907 81.1933 134.136 78.2745 130.717 78.2745C127.298 78.2745 124.526 81.1933 124.526 84.7937C124.526 88.3942 127.298 91.313 130.717 91.313Z" fill="#0E9F6E"/>
<path d="M219.216 203.146C216.389 203.146 214.098 205.559 214.098 208.536C214.098 211.513 216.389 213.927 219.216 213.927C222.043 213.927 224.335 211.513 224.335 208.536C224.335 205.559 222.043 203.146 219.216 203.146Z" fill="#0E9F6E"/>
<path d="M124.54 223.835C121.941 223.835 119.835 221.617 119.835 218.881C119.835 216.145 121.941 213.927 124.54 213.927C127.138 213.927 129.244 216.145 129.244 218.881C129.244 221.617 127.138 223.835 124.54 223.835Z" fill="#E5E7EB"/>
<path d="M171.626 200.511C173.312 201.536 173.89 203.807 172.916 205.583C171.943 207.358 169.786 207.967 168.1 206.942C166.414 205.916 165.836 203.646 166.81 201.87C167.783 200.094 169.939 199.486 171.626 200.511Z" fill="#E5E7EB"/>
<path d="M287.899 97.3462L281.486 104.099C281.253 104.345 281.253 104.744 281.486 104.99C281.72 105.236 282.098 105.236 282.332 104.99L288.745 98.2367C288.978 97.9907 288.978 97.5919 288.745 97.346C288.511 97.1001 288.133 97.1002 287.899 97.3462Z" fill="#E5E7EB"/>
<path d="M287.271 102.182L285.422 104.129C285.189 104.375 285.189 104.774 285.422 105.02C285.656 105.266 286.034 105.265 286.268 105.019L288.117 103.072C288.351 102.826 288.351 102.427 288.117 102.181C287.884 101.935 287.505 101.936 287.271 102.182Z" fill="#E5E7EB"/>
<path d="M90.1222 216.571L84.3841 222.614C84.1752 222.834 84.1752 223.19 84.3841 223.41L84.3843 223.41C84.5932 223.63 84.9319 223.63 85.1407 223.41L90.8788 217.368C91.0877 217.148 91.0877 216.791 90.8789 216.571L90.8786 216.571C90.6697 216.351 90.3311 216.351 90.1222 216.571Z" fill="#E5E7EB"/>
<path d="M89.5604 220.897L87.9053 222.64C87.6964 222.86 87.6964 223.216 87.9053 223.436L87.9056 223.437C88.1145 223.657 88.4531 223.657 88.662 223.437L90.3171 221.694C90.5259 221.474 90.5259 221.117 90.3171 220.897L90.3168 220.897C90.1079 220.677 89.7692 220.677 89.5604 220.897Z" fill="#E5E7EB"/>
<path d="M62.3141 99.0554L73.4066 87.374C73.8105 86.9486 73.8105 86.2589 73.4066 85.8335C73.0026 85.4082 72.3477 85.4082 71.9438 85.8335L60.8514 97.5149C60.4475 97.9403 60.4475 98.63 60.8514 99.0554C61.2553 99.4807 61.9102 99.4807 62.3141 99.0554Z" fill="#E5E7EB"/>
<path d="M63.4004 90.6917L66.5994 87.3228C67.0034 86.8974 67.0034 86.2078 66.5994 85.7824C66.1955 85.357 65.5406 85.357 65.1367 85.7824L61.9376 89.1513C61.5337 89.5767 61.5337 90.2664 61.9376 90.6917C62.3416 91.1171 62.9965 91.1171 63.4004 90.6917Z" fill="#E5E7EB"/>
<path d="M282.608 224.711L290.417 216.487C290.701 216.188 290.701 215.702 290.417 215.403C290.132 215.104 289.671 215.104 289.387 215.403L281.578 223.627C281.294 223.926 281.294 224.411 281.578 224.711C281.863 225.01 282.324 225.01 282.608 224.711Z" fill="#E5E7EB"/>
<path d="M283.372 218.824L285.625 216.452C285.909 216.152 285.909 215.667 285.625 215.367C285.34 215.068 284.879 215.068 284.595 215.367L282.343 217.739C282.058 218.039 282.058 218.524 282.343 218.824C282.627 219.123 283.088 219.123 283.372 218.824Z" fill="#E5E7EB"/>
<path fill-rule="evenodd" clip-rule="evenodd" d="M277.342 73.2666H278.586C278.887 73.2666 279.129 73.5245 279.129 73.8386V75.1492C279.129 75.4661 278.884 75.7212 278.586 75.7212H277.342C277.043 75.7212 276.798 75.4634 276.798 75.1492V73.8386C276.798 73.7635 276.812 73.689 276.84 73.6195C276.867 73.5501 276.907 73.487 276.957 73.4338C277.008 73.3807 277.068 73.3385 277.134 73.3098C277.2 73.2812 277.27 73.2665 277.342 73.2666ZM281.656 73.2666H282.901C283.199 73.2666 283.444 73.5245 283.444 73.8386V75.1492C283.444 75.4661 283.199 75.7212 282.901 75.7212H281.656C281.358 75.7212 281.113 75.4634 281.113 75.1492V73.8386C281.113 73.5245 281.358 73.2666 281.656 73.2666ZM285.974 73.2666H287.219C287.517 73.2666 287.762 73.5245 287.762 73.8386V75.1492C287.762 75.4661 287.517 75.7212 287.219 75.7212H285.974C285.676 75.7212 285.431 75.4634 285.431 75.1492V73.8386C285.431 73.7635 285.445 73.689 285.472 73.6195C285.499 73.5501 285.539 73.487 285.59 73.4338C285.64 73.3807 285.7 73.3385 285.766 73.3098C285.832 73.2812 285.903 73.2665 285.974 73.2666ZM290.289 73.2666H291.534C291.832 73.2666 292.077 73.5245 292.077 73.8386V75.1492C292.077 75.4661 291.832 75.7212 291.534 75.7212H290.289C290.145 75.7211 290.007 75.6609 289.904 75.5537C289.802 75.4466 289.744 75.3011 289.743 75.1492V73.8386C289.745 73.687 289.803 73.542 289.905 73.435C290.007 73.328 290.145 73.2676 290.289 73.2666ZM294.604 73.2666H295.849C296.15 73.2666 296.395 73.5245 296.395 73.8386V75.1492C296.395 75.4661 296.15 75.7212 295.849 75.7212H294.604C294.306 75.7212 294.061 75.4634 294.061 75.1492V73.8386C294.061 73.5245 294.306 73.2666 294.604 73.2666ZM281.815 78.2218H283.059C283.358 78.2218 283.603 78.4796 283.603 78.7938V80.1071C283.603 80.4213 283.358 80.6791 283.059 80.6791H281.815C281.514 80.6791 281.271 80.4213 281.271 80.1071V78.7966C281.271 78.7212 281.285 78.6465 281.312 78.5767C281.339 78.5069 281.379 78.4435 281.429 78.3901C281.48 78.3366 281.54 78.2943 281.606 78.2654C281.672 78.2365 281.743 78.2217 281.815 78.2218ZM286.13 78.2218H287.374C287.672 78.2218 287.917 78.4796 287.917 78.7938V80.1071C287.917 80.4213 287.672 80.6791 287.374 80.6791H286.13C285.831 80.6791 285.586 80.4213 285.586 80.1071V78.7966C285.586 78.7212 285.6 78.6465 285.627 78.5767C285.654 78.5069 285.694 78.4435 285.744 78.3901C285.795 78.3366 285.855 78.2943 285.921 78.2654C285.987 78.2365 286.058 78.2217 286.13 78.2218ZM290.445 78.2218H291.689C291.99 78.2218 292.235 78.4796 292.235 78.7938V80.1071C292.234 80.2591 292.176 80.4045 292.074 80.5117C291.972 80.6188 291.834 80.679 291.689 80.6791H290.445C290.146 80.6791 289.902 80.4213 289.902 80.1071V78.7966C289.902 78.4796 290.146 78.2218 290.445 78.2218ZM285.974 67.9434H287.219C287.517 67.9434 287.762 68.2012 287.762 68.5154V69.8263C287.762 70.1429 287.517 70.3983 287.219 70.3983H285.974C285.676 70.3983 285.431 70.1405 285.431 69.8263V68.5154C285.431 68.4402 285.445 68.3657 285.472 68.2963C285.499 68.2268 285.539 68.1637 285.59 68.1105C285.64 68.0574 285.7 68.0153 285.766 67.9866C285.832 67.9579 285.903 67.9432 285.974 67.9434ZM290.289 67.9434H291.534C291.832 67.9434 292.077 68.2012 292.077 68.5154V69.8263C292.077 70.1429 291.832 70.3983 291.534 70.3983H290.289C290.145 70.3982 290.007 70.338 289.904 70.2309C289.802 70.1237 289.744 69.9783 289.743 69.8263V68.5154C289.745 68.3637 289.803 68.2187 289.905 68.1118C290.007 68.0048 290.145 67.9443 290.289 67.9434ZM52.5598 227.784H53.8043C54.1052 227.784 54.3474 228.042 54.3474 228.356V229.667C54.3474 229.984 54.1026 230.239 53.8043 230.239H52.5598C52.2614 230.239 52.0166 229.981 52.0166 229.667V228.356C52.0165 228.281 52.0304 228.207 52.0576 228.137C52.0849 228.068 52.1249 228.005 52.1754 227.951C52.2258 227.898 52.2858 227.856 52.3517 227.827C52.4177 227.799 52.4884 227.784 52.5598 227.784ZM56.8745 227.784H58.119C58.4177 227.784 58.6625 228.042 58.6625 228.356V229.667C58.6625 229.984 58.4177 230.239 58.119 230.239H56.8745C56.5762 230.239 56.3313 229.981 56.3313 229.667V228.356C56.3313 228.042 56.5762 227.784 56.8745 227.784ZM61.1922 227.784H62.4371C62.7354 227.784 62.9802 228.042 62.9802 228.356V229.667C62.9802 229.984 62.7354 230.239 62.4371 230.239H61.1922C60.8939 230.239 60.6491 229.981 60.6491 229.667V228.356C60.649 228.281 60.6629 228.207 60.6902 228.137C60.7175 228.068 60.7575 228.005 60.8079 227.951C60.8584 227.898 60.9183 227.856 60.9842 227.828C61.0502 227.799 61.1208 227.784 61.1922 227.784ZM65.5073 227.784H66.7518C67.0501 227.784 67.295 228.042 67.295 228.356V229.667C67.295 229.984 67.0501 230.239 66.7518 230.239H65.5073C65.363 230.239 65.2247 230.178 65.1224 230.071C65.0201 229.964 64.9623 229.819 64.9615 229.667V228.356C64.9631 228.204 65.0212 228.06 65.1233 227.953C65.2254 227.846 65.3633 227.785 65.5073 227.784ZM69.8224 227.784H71.0669C71.3679 227.784 71.6127 228.042 71.6127 228.356V229.667C71.6127 229.984 71.3679 230.239 71.0669 230.239H69.8224C69.5241 230.239 69.2792 229.981 69.2792 229.667V228.356C69.2792 228.042 69.5241 227.784 69.8224 227.784ZM57.0331 232.739H58.2776C58.5759 232.739 58.8207 232.997 58.8207 233.311V234.625C58.8207 234.939 58.5759 235.197 58.2776 235.197H57.0331C56.7321 235.197 56.4895 234.939 56.4895 234.625V233.314C56.4892 233.239 56.503 233.164 56.5301 233.094C56.5573 233.025 56.5973 232.961 56.6478 232.908C56.6983 232.854 56.7584 232.812 56.8245 232.783C56.8906 232.754 56.9615 232.739 57.0331 232.739ZM61.3478 232.739H62.5923C62.8906 232.739 63.1354 232.997 63.1354 233.311V234.625C63.1354 234.939 62.8906 235.197 62.5923 235.197H61.3478C61.0494 235.197 60.8046 234.939 60.8046 234.625V233.314C60.8042 233.239 60.8179 233.164 60.845 233.094C60.8721 233.024 60.9121 232.961 60.9625 232.908C61.013 232.854 61.0731 232.812 61.1392 232.783C61.2053 232.754 61.2762 232.739 61.3478 232.739ZM65.6629 232.739H66.9074C67.2083 232.739 67.4532 232.997 67.4532 233.311V234.625C67.4524 234.777 67.3945 234.922 67.2923 235.029C67.19 235.136 67.0516 235.197 66.9074 235.197H65.6629C65.3645 235.197 65.1197 234.939 65.1197 234.625V233.314C65.1197 232.997 65.3645 232.739 65.6629 232.739ZM61.1926 222.461H62.4371C62.7354 222.461 62.9802 222.719 62.9802 223.033V224.344C62.9802 224.661 62.7354 224.916 62.4371 224.916H61.1926C60.8939 224.916 60.6491 224.658 60.6491 224.344V223.033C60.6489 222.958 60.6629 222.884 60.6901 222.814C60.7174 222.745 60.7574 222.681 60.8079 222.628C60.8584 222.575 60.9184 222.533 60.9844 222.504C61.0504 222.475 61.1212 222.461 61.1926 222.461ZM65.5073 222.461H66.7518C67.0501 222.461 67.295 222.719 67.295 223.033V224.344C67.295 224.661 67.0501 224.916 66.7518 224.916H65.5073C65.363 224.916 65.2247 224.856 65.1224 224.748C65.0201 224.641 64.9623 224.496 64.9615 224.344V223.033C64.963 222.882 65.021 222.737 65.1231 222.629C65.2252 222.522 65.3632 222.462 65.5073 222.461Z" fill="#E5E7EB"/>
<path fill-rule="evenodd" clip-rule="evenodd" d="M78.6324 161.782C69.3513 161.782 61.8267 153.746 61.8267 143.835C61.8267 133.923 69.3513 125.888 78.6324 125.888C87.9135 125.888 95.4381 133.923 95.4381 143.835C95.4381 153.746 87.9135 161.782 78.6324 161.782Z" fill="#0E9F6E"/>
<path d="M85.4028 136.219L78.3034 144.195L74.041 139.41" stroke="white" stroke-width="2" stroke-linecap="round" stroke-linejoin="round"/>
<path d="M71.2104 151.831L78.3099 143.855L82.5722 148.64" stroke="white" stroke-width="2" stroke-linecap="round" stroke-linejoin="round"/>
</svg>

<svg width="360" height="303" viewBox="0 0 360 303" fill="none" xmlns="http://www.w3.org/2000/svg"><path d="M288.958 87.602H88.482c-5.825 0-10.547 4.973-10.547 11.107v124.429c0 6.134 4.722 11.107 10.547 11.107h200.476c5.824 0 10.546-4.973 10.546-11.107V98.708c0-6.133-4.722-11.106-10.546-11.106Z" fill="#fff" stroke="#E5E7EB" stroke-width="4"/><path d="M267.841 98.383h-15.355c-2.411 0-4.365 2.058-4.365 4.597 0 2.538 1.954 4.596 4.365 4.596h15.355c2.41 0 4.365-2.058 4.365-4.596s-1.955-4.597-4.365-4.597Zm-32.417 0h-15.355c-2.411 0-4.365 2.058-4.365 4.597 0 2.538 1.954 4.596 4.365 4.596h15.355c2.411 0 4.365-2.058 4.365-4.596s-1.954-4.597-4.365-4.597Zm-28.051 4.597c0-2.539-1.954-4.597-4.365-4.597s-4.365 2.058-4.365 4.597c0 2.538 1.954 4.596 4.365 4.596s4.365-2.058 4.365-4.596Z" fill="#fff" stroke="#E5E7EB" stroke-width="4"/><path d="M105.628 183.755h29.779v11.485h12.541v-11.485h7.695v-11.07h-7.695v-42.781h-16.419l-25.901 42.972zm30.021-11.07h-16.813v-.511l16.328-27.212h.485zm53.059 23.99c15.601 0 25.022-12.506 25.053-34.039.03-21.374-9.513-33.625-25.053-33.625-15.571 0-25.022 12.219-25.053 33.625-.06 21.47 9.422 34.007 25.053 34.039m0-11.453c-7.119 0-11.723-7.529-11.693-22.586.03-14.835 4.604-22.3 11.693-22.3 7.058 0 11.663 7.465 11.663 22.3.03 15.057-4.574 22.586-11.663 22.586m33.467-1.467h29.778v11.485h12.542v-11.485h7.694v-11.07h-7.694v-42.781h-16.419l-25.901 42.972zm30.02-11.07h-16.812v-.511l16.328-27.212h.484z" fill="#E5E7EB"/><path d="M99.034 102.081c0-2.042-1.572-3.698-3.512-3.698s-3.512 1.656-3.512 3.698c0 2.043 1.573 3.699 3.512 3.699s3.512-1.656 3.512-3.699Z" fill="#fff" stroke="#E5E7EB" stroke-width="4"/><path d="M80.823 186.292c2.461 0 4.457 2.102 4.457 4.694s-1.996 4.694-4.457 4.694c-2.462 0-4.457-2.102-4.457-4.694s1.995-4.694 4.457-4.694m222.123-50.676c-2.986 1.815-6.802.738-8.526-2.405-1.723-3.144-.701-7.163 2.285-8.978 2.985-1.815 6.801-.738 8.525 2.405 1.723 3.144.701 7.163-2.284 8.978" fill="#0E9F6E"/><path d="M186.333 107.835c-2.569 0-4.652-2.193-4.652-4.898s2.083-4.898 4.652-4.898 4.651 2.193 4.651 4.898-2.082 4.898-4.651 4.898" fill="#E5E7EB"/><path d="M130.717 91.313c3.419 0 6.19-2.919 6.19-6.52s-2.771-6.519-6.19-6.519-6.191 2.92-6.191 6.52 2.772 6.519 6.191 6.519m88.499 111.833c-2.827 0-5.118 2.413-5.118 5.39s2.291 5.391 5.118 5.391 5.119-2.414 5.119-5.391-2.292-5.39-5.119-5.39" fill="#0E9F6E"/><path d="M124.54 223.835c-2.599 0-4.705-2.218-4.705-4.954s2.106-4.954 4.705-4.954c2.598 0 4.704 2.218 4.704 4.954s-2.106 4.954-4.704 4.954m47.086-23.324c1.686 1.025 2.264 3.296 1.29 5.072-.973 1.775-3.13 2.384-4.816 1.359-1.686-1.026-2.264-3.296-1.29-5.072s3.129-2.384 4.816-1.359M287.899 97.346l-6.413 6.753a.655.655 0 0 0 0 .891.577.577 0 0 0 .846 0l6.413-6.753a.655.655 0 0 0 0-.891.577.577 0 0 0-.846 0m-.628 4.836-1.849 1.947a.655.655 0 0 0 0 .891.577.577 0 0 0 .846-.001l1.849-1.947a.653.653 0 0 0 0-.891.577.577 0 0 0-.846.001M90.122 216.571l-5.738 6.043a.584.584 0 0 0 0 .796c.21.22.548.22.757 0l5.738-6.042a.585.585 0 0 0 0-.797.516.516 0 0 0-.757 0m-.562 4.326-1.655 1.743a.584.584 0 0 0 0 .796v.001c.21.22.548.22.757 0l1.655-1.743a.585.585 0 0 0 0-.797.516.516 0 0 0-.757 0M62.314 99.055l11.093-11.681a1.13 1.13 0 0 0 0-1.54 1 1 0 0 0-1.463 0L60.85 97.514a1.13 1.13 0 0 0 0 1.541 1 1 0 0 0 1.463 0m1.087-8.363 3.2-3.37a1.13 1.13 0 0 0 0-1.54 1 1 0 0 0-1.463 0l-3.2 3.37a1.13 1.13 0 0 0 0 1.54 1 1 0 0 0 1.463 0m219.208 134.019 7.809-8.224a.796.796 0 0 0 0-1.084.703.703 0 0 0-1.03 0l-7.809 8.224a.796.796 0 0 0 0 1.084.703.703 0 0 0 1.03 0m.764-5.887 2.253-2.372a.797.797 0 0 0 0-1.085.703.703 0 0 0-1.03 0l-2.252 2.372a.795.795 0 0 0 0 1.085.7.7 0 0 0 1.029 0" fill="#E5E7EB"/><path fill-rule="evenodd" clip-rule="evenodd" d="M277.342 73.267h1.244c.301 0 .543.258.543.572v1.31c0 .317-.245.572-.543.572h-1.244c-.299 0-.544-.258-.544-.572v-1.31a.59.59 0 0 1 .336-.53.5.5 0 0 1 .208-.042m4.314 0h1.245c.298 0 .543.258.543.572v1.31c0 .317-.245.572-.543.572h-1.245c-.298 0-.543-.258-.543-.572v-1.31c0-.314.245-.572.543-.572m4.318 0h1.245c.298 0 .543.258.543.572v1.31c0 .317-.245.572-.543.572h-1.245c-.298 0-.543-.258-.543-.572v-1.31q0-.115.041-.22a.56.56 0 0 1 .294-.31.5.5 0 0 1 .208-.042m4.315 0h1.245c.298 0 .543.258.543.572v1.31c0 .317-.245.572-.543.572h-1.245a.53.53 0 0 1-.385-.167.6.6 0 0 1-.161-.405v-1.31a.6.6 0 0 1 .162-.404.54.54 0 0 1 .384-.168m4.315 0h1.245c.301 0 .546.258.546.572v1.31a.56.56 0 0 1-.546.572h-1.245c-.298 0-.543-.258-.543-.572v-1.31c0-.314.245-.572.543-.572m-12.789 4.955h1.244c.299 0 .544.258.544.572v1.313c0 .314-.245.572-.544.572h-1.244c-.301 0-.544-.258-.544-.572v-1.31a.6.6 0 0 1 .158-.407.52.52 0 0 1 .386-.168m4.315 0h1.244c.298 0 .543.258.543.572v1.313c0 .314-.245.572-.543.572h-1.244c-.299 0-.544-.258-.544-.572v-1.31a.6.6 0 0 1 .158-.407.52.52 0 0 1 .386-.168m4.315 0h1.244a.56.56 0 0 1 .546.572v1.313a.6.6 0 0 1-.161.405.53.53 0 0 1-.385.167h-1.244c-.299 0-.543-.258-.543-.572v-1.31c0-.317.244-.575.543-.575m-4.471-10.279h1.245c.298 0 .543.258.543.572v1.311c0 .317-.245.572-.543.572h-1.245c-.298 0-.543-.257-.543-.572v-1.31q0-.114.041-.22a.56.56 0 0 1 .294-.31.5.5 0 0 1 .208-.043m4.315 0h1.245c.298 0 .543.258.543.572v1.311c0 .317-.245.572-.543.572h-1.245a.54.54 0 0 1-.385-.167.6.6 0 0 1-.161-.405v-1.31a.6.6 0 0 1 .162-.404.54.54 0 0 1 .384-.169M52.559 227.784h1.245c.301 0 .543.258.543.572v1.311a.56.56 0 0 1-.543.572H52.56c-.299 0-.543-.258-.543-.572v-1.311a.6.6 0 0 1 .158-.405.53.53 0 0 1 .384-.167m4.316 0h1.244c.299 0 .544.258.544.572v1.311a.56.56 0 0 1-.544.572h-1.245c-.298 0-.543-.258-.543-.572v-1.311c0-.314.245-.572.543-.572m4.317 0h1.245c.298 0 .543.258.543.572v1.311a.56.56 0 0 1-.543.572h-1.245c-.298 0-.543-.258-.543-.572v-1.311a.6.6 0 0 1 .159-.405.53.53 0 0 1 .384-.167m4.315 0h1.245c.298 0 .543.258.543.572v1.311a.56.56 0 0 1-.543.572h-1.245a.53.53 0 0 1-.385-.168.6.6 0 0 1-.16-.404v-1.311a.6.6 0 0 1 .161-.403.54.54 0 0 1 .384-.169m4.315 0h1.245a.56.56 0 0 1 .546.572v1.311a.56.56 0 0 1-.546.572h-1.245c-.298 0-.543-.258-.543-.572v-1.311c0-.314.245-.572.543-.572m-12.789 4.955h1.245c.298 0 .543.258.543.572v1.314c0 .314-.245.572-.543.572h-1.245c-.3 0-.544-.258-.544-.572v-1.311q0-.114.041-.22a.58.58 0 0 1 .294-.311.5.5 0 0 1 .21-.044m4.315 0h1.244c.299 0 .543.258.543.572v1.314c0 .314-.244.572-.543.572h-1.244c-.299 0-.543-.258-.543-.572v-1.311a.6.6 0 0 1 .157-.406.54.54 0 0 1 .386-.169m4.315 0h1.244c.301 0 .546.258.546.572v1.314a.6.6 0 0 1-.16.404.53.53 0 0 1-.386.168h-1.244c-.298 0-.543-.258-.543-.572v-1.311c0-.317.245-.575.543-.575m-4.47-10.278h1.244c.298 0 .543.258.543.572v1.311a.56.56 0 0 1-.543.572h-1.244c-.3 0-.544-.258-.544-.572v-1.311a.6.6 0 0 1 .159-.405.52.52 0 0 1 .385-.167m4.314 0h1.245c.298 0 .543.258.543.572v1.311a.56.56 0 0 1-.543.572h-1.245a.53.53 0 0 1-.385-.168.6.6 0 0 1-.16-.404v-1.311a.6.6 0 0 1 .161-.404.54.54 0 0 1 .384-.168" fill="#E5E7EB"/><path fill-rule="evenodd" clip-rule="evenodd" d="M78.632 161.782c-9.28 0-16.805-8.036-16.805-17.947 0-9.912 7.524-17.947 16.805-17.947s16.806 8.035 16.806 17.947-7.525 17.947-16.806 17.947" fill="#0E9F6E"/><path d="m85.403 136.219-7.1 7.976-4.262-4.785" stroke="#fff" stroke-width="2" stroke-linecap="round" stroke-linejoin="round"/><path d="m71.21 151.831 7.1-7.976 4.262 4.785" stroke="#fff" stroke-width="2" stroke-linecap="round" stroke-linejoin="round"/></svg>
